X:7029
T:Gypsy Princess, The
R:Reel
C:Trad.
O:Ireland
Z:Paul Hardy's Session Tunebook 2022 (see www.paulhardy.net). Creative Commons cc by-nc-sa licenced.
M:4/4
L:1/8
Q:1/4=140
K:G
"Em" B3B B2 B2|"Am" ABAG E2 DE|"G" G2 GB dedB|"D" BA AG A2 A2|
"Em" B3B B2 B2|"Am" ABAG (3EGE DE|"G" G2 GB dedB|"D" AG GF "G" G4:|
|:"G" d3 d d2 d2|GBBA GABd|"Em" e3 e e2 e2|GBBA GABc|
"G" d3 d d2 d2|GBBA GABd|"Em" g3 e dBAB|"D" AG GF "G" G4:|

